svg/black/zen.svg

<svg xmlns="http://www.w3.org/2000/svg" width="32" height="32" viewBox="0 0 32 32">
  <path fill-rule="evenodd" d="M16,32 C7.163444,32 0,24.836556 0,16 C0,7.163444 7.163444,0 16,0 C24.836556,0 32,7.163444 32,16 C32,24.836556 24.836556,32 16,32 Z M6.5,18 L9.9425,20 L13.3425,17.9574468 L16.7,20 L16.6987549,23.9944731 L20.1,26 L23.5,23.9574468 L23.5,20 L20.1,17.9574468 L20.1,14 L23.5,12 L23.5,8 L20.1,6 L16.7,8 L16.7,11.9574468 L13.2575,14 L9.9425,11.9574468 L6.5,14 L6.5,18 Z"/>
</svg>

<svg xmlns="http://www.w3.org/2000/svg" width="32" height="32"><path fill-rule="evenodd" d="M16 32C7.163 32 0 24.837 0 16S7.163 0 16 0s16 7.163 16 16-7.163 16-16 16zM6.5 18l3.443 2 3.4-2.043L16.7 20l-.001 3.994L20.1 26l3.4-2.043V20l-3.4-2.043V14l3.4-2V8l-3.4-2-3.4 2v3.957L13.258 14l-3.315-2.043L6.5 14v4z"/></svg>
